X: 11890
T: Emma
R: waltz
M: 3/4
K: Aminor
|:efe cAA|e3 cAA|B2c dcB|AB/c/d/ e3|
efe cAA|e3 cAA|B2c dcB|A3 A3:|
|:a3 agf|e3 edc|B2c dcB|A>Bc/d/ e3|
a3 agf|e3 edc|B2c dcB|A3 A3:|

